Numix-Light/16/status/indicator-keyboard-En.svg

<?xml version="1.0" encoding="UTF-8" standalone="no"?>
<svg
   xmlns:dc="http://purl.org/dc/elements/1.1/"
   xmlns:cc="http://creativecommons.org/ns#"
   xmlns:rdf="http://www.w3.org/1999/02/22-rdf-syntax-ns#"
   xmlns:svg="http://www.w3.org/2000/svg"
   xmlns="http://www.w3.org/2000/svg"
   xmlns:sodipodi="http://sodipodi.sourceforge.net/DTD/sodipodi-0.dtd"
   xmlns:inkscape="http://www.inkscape.org/namespaces/inkscape"
   viewBox="0 0 16 16"
   id="svg2"
   version="1.1"
   inkscape:version="0.91 r13725"
   sodipodi:docname="indicator-keyboard-En.svg">
  <metadata
     id="metadata13">
    <rdf:RDF>
      <cc:Work
         rdf:about="">
        <dc:format>image/svg+xml</dc:format>
        <dc:type
           rdf:resource="http://purl.org/dc/dcmitype/StillImage" />
      </cc:Work>
    </rdf:RDF>
  </metadata>
  <defs
     id="defs11" />
  <sodipodi:namedview
     pagecolor="#ffffff"
     bordercolor="#666666"
     borderopacity="1"
     objecttolerance="10"
     gridtolerance="10"
     guidetolerance="10"
     inkscape:pageopacity="0"
     inkscape:pageshadow="2"
     inkscape:window-width="459"
     inkscape:window-height="369"
     id="namedview9"
     showgrid="false"
     inkscape:zoom="14.75"
     inkscape:cx="8"
     inkscape:cy="8"
     inkscape:window-x="65"
     inkscape:window-y="24"
     inkscape:window-maximized="0"
     inkscape:current-layer="svg2" />
  <path
     style="fill:#353535;fill-opacity:1"
     d="M 1.5996094 0 C 0.71320937 2.9605947e-16 0 0.71320937 0 1.5996094 L 0 14.400391 C 2.9605947e-16 15.286791 0.71320937 16 1.5996094 16 L 14.400391 16 C 15.286791 16 16 15.286791 16 14.400391 L 16 1.5996094 C 16 0.71320937 15.286791 0 14.400391 0 L 1.5996094 0 z M 3.7089844 4.8808594 L 7.3085938 4.8808594 L 7.3085938 5.4121094 L 4.3203125 5.4121094 L 4.3203125 7.5820312 L 6.984375 7.5820312 L 6.984375 8.1035156 L 4.3203125 8.1035156 L 4.3203125 10.587891 L 7.5429688 10.587891 L 7.5429688 11.119141 L 3.7089844 11.119141 L 3.7089844 4.8808594 z M 10.447266 6.375 C 10.801266 6.375 11.094125 6.4272969 11.328125 6.5292969 C 11.568125 6.6312969 11.758484 6.77675 11.896484 6.96875 C 12.040484 7.15475 12.141172 7.3805312 12.201172 7.6445312 C 12.261172 7.9085312 12.291016 8.1995781 12.291016 8.5175781 L 12.291016 11.119141 L 11.707031 11.119141 L 11.707031 8.7070312 C 11.707031 8.3770313 11.682766 8.0971406 11.634766 7.8691406 C 11.592766 7.6411406 11.518156 7.4545469 11.410156 7.3105469 C 11.308156 7.1665469 11.170094 7.0658594 10.996094 7.0058594 C 10.828094 6.9398594 10.615422 6.90625 10.357422 6.90625 C 10.081422 6.90625 9.8407188 6.9211719 9.6367188 6.9511719 C 9.4387188 6.9811719 9.31 7.0092031 9.25 7.0332031 L 9.25 11.119141 L 8.6640625 11.119141 L 8.6640625 6.6269531 C 8.8380625 6.5789531 9.0731875 6.5248438 9.3671875 6.4648438 C 9.6611875 6.4048438 10.021265 6.375 10.447266 6.375 z "
     id="path4" />
</svg>

<svg xmlns="http://www.w3.org/2000/svg" viewBox="0 0 16 16">
 <path d="m 1.6 0 c -0.886 0 -1.6 0.713 -1.6 1.6 l 0 12.801 c 0 0.886 0.713 1.6 1.6 1.6 l 12.801 0 c 0.886 0 1.6 -0.713 1.6 -1.6 l 0 -12.801 c 0 -0.886 -0.713 -1.6 -1.6 -1.6 l -12.801 0 z m 2.109 4.881 l 3.6 0 l 0 0.531 l -2.988 0 l 0 2.17 l 2.664 0 l 0 0.521 l -2.664 0 l 0 2.484 l 3.223 0 l 0 0.531 l -3.834 0 l 0 -6.238 z m 6.738 1.494 c 0.354 0 0.647 0.052 0.881 0.154 c 0.24 0.102 0.43 0.247 0.568 0.439 c 0.144 0.186 0.245 0.412 0.305 0.676 c 0.06 0.264 0.09 0.555 0.09 0.873 l 0 2.602 l -0.584 0 l 0 -2.412 c 0 -0.33 -0.024 -0.61 -0.072 -0.838 c -0.042 -0.228 -0.117 -0.415 -0.225 -0.559 c -0.102 -0.144 -0.24 -0.245 -0.414 -0.305 c -0.168 -0.066 -0.381 -0.1 -0.639 -0.1 c -0.276 0 -0.517 0.015 -0.721 0.045 c -0.198 0.03 -0.327 0.058 -0.387 0.082 l 0 4.086 l -0.586 0 l 0 -4.492 c 0.174 -0.048 0.409 -0.102 0.703 -0.162 c 0.294 -0.06 0.654 -0.09 1.08 -0.09 z" style="fill:#353535;fill-opacity:1"/>
</svg>
